icons/photoshopexpress-filled.svg

<svg width="256" height="256" viewBox="0 0 256 256" fill="none" xmlns="http://www.w3.org/2000/svg">
<path d="M196 0H60C26.8629 0 0 26.8629 0 60V196C0 229.137 26.8629 256 60 256H196C229.137 256 256 229.137 256 196V60C256 26.8629 229.137 0 196 0Z" fill="#001E36"/>
<path d="M88.9 86.3129C85.5416 82.6962 81.4036 79.892 76.8 78.1129C70.8841 75.9217 64.607 74.8698 58.3 75.0129C55.6 75.0129 52.9 75.0129 50.1 75.1129C47.3 75.2129 44.7 75.2129 42.3 75.3129C39.9 75.4129 37.5 75.4129 35.4 75.5129C33.3 75.6129 31.4 75.6129 29.9 75.6129C29.3 75.6129 29 76.0129 29 76.7129V179.013C29 179.913 29.3 180.313 30 180.313H47.7C48.6 180.313 49 179.813 49 178.913V147.713C50.7 147.713 52 147.713 52.9 147.813C53.8 147.913 55.3 147.913 57.4 147.913C64.3512 147.999 71.2506 146.708 77.7 144.113C83.668 141.675 88.7337 137.448 92.2 132.013C95.8 126.413 97.6 119.313 97.6 110.813C97.5871 106.404 96.9129 102.022 95.6 97.8129C94.1671 93.566 91.8878 89.6538 88.9 86.3129ZM75 121.413C73.1121 123.873 70.5367 125.717 67.6 126.713C64.2537 127.851 60.7336 128.392 57.2 128.313H52.4C51.3 128.313 50.2 128.213 48.9 128.113V94.9129C50.1 94.8129 51.4 94.7129 52.6 94.7129C54.4 94.6129 56.4 94.6128 58.8 94.6128C62.4343 94.5312 66.0453 95.2125 69.4 96.6128C72.0234 97.8391 74.2181 99.8249 75.7 102.313C77.1898 105.036 77.9154 108.111 77.8 111.213C77.8 115.513 76.9 118.913 75 121.413Z" fill="#31A8FF"/>
<path d="M144.2 137.813C139.933 134.797 135.295 132.343 130.4 130.513C128.2 129.513 126.1 128.413 124 127.213C122.822 126.533 121.8 125.613 121 124.513C120.495 123.731 120.186 122.839 120.1 121.913C120.073 120.965 120.315 120.028 120.8 119.213C121.472 118.24 122.462 117.533 123.6 117.213C125.35 116.686 127.174 116.45 129 116.513C132.41 116.495 135.806 116.933 139.1 117.813C141.971 118.484 144.71 119.634 147.2 121.213C147.349 121.311 147.522 121.363 147.7 121.363C147.878 121.363 148.052 121.311 148.2 121.213C148.355 121.102 148.475 120.949 148.546 120.771C148.617 120.594 148.636 120.4 148.6 120.213V104.013C148.616 103.61 148.583 103.207 148.5 102.813C148.42 102.609 148.299 102.424 148.144 102.269C147.989 102.114 147.804 101.993 147.6 101.913C145.43 100.717 143.056 99.9371 140.6 99.6129C136.897 99.0113 133.152 98.7104 129.4 98.7129C123 98.7129 117.7 99.9129 113.5 102.213C109.542 104.305 106.277 107.501 104.1 111.413C102.069 115.118 101.035 119.288 101.1 123.513C101.091 127.021 101.806 130.493 103.2 133.713C104.774 137.009 107.103 139.888 110 142.113C113.881 145.142 118.196 147.57 122.8 149.313C127.2 151.113 130.2 152.713 131.6 154.013C132.235 154.48 132.761 155.08 133.141 155.77C133.521 156.461 133.746 157.226 133.8 158.013C133.818 158.865 133.605 159.706 133.182 160.445C132.759 161.185 132.143 161.796 131.4 162.213C129.8 163.213 127.3 163.613 123.9 163.613C120.321 163.514 116.766 163.01 113.3 162.113C109.605 161.098 106.119 159.439 103 157.213C102.89 157.122 102.756 157.064 102.615 157.046C102.473 157.029 102.329 157.052 102.2 157.113C102.061 157.216 101.952 157.353 101.882 157.51C101.811 157.668 101.783 157.841 101.8 158.013V175.413C101.776 175.791 101.856 176.168 102.033 176.503C102.209 176.839 102.475 177.119 102.8 177.313C105.378 178.815 108.181 179.895 111.1 180.513C115.106 181.395 119.198 181.831 123.3 181.813C129.8 181.813 135.2 180.713 139.6 178.613C143.779 176.72 147.296 173.62 149.7 169.713C152.099 165.699 153.312 161.088 153.2 156.413C153.258 152.868 152.541 149.353 151.1 146.113C149.585 142.778 147.202 139.911 144.2 137.813Z" fill="#31A8FF"/>
<path d="M226.6 177.613L201 131.513L224.9 88.1128C225.097 87.9008 225.222 87.6322 225.258 87.3451C225.294 87.0579 225.239 86.7668 225.1 86.5128C224.979 86.2277 224.765 85.9927 224.492 85.8471C224.219 85.7014 223.904 85.654 223.6 85.7128H206.6C206.068 85.6547 205.533 85.7973 205.1 86.1128C204.753 86.4351 204.51 86.8526 204.4 87.3128C202.7 91.1128 200.8 94.4128 199 98.2128C197.2 102.013 195.3 105.813 193.6 109.513C192 112.813 190.4 116.313 188.9 119.813C187.4 116.413 185.8 113.013 184.1 109.713C182.1 105.913 180.2 102.113 178.3 98.3128C176.4 94.5128 174.7 91.1128 173.1 87.1128C172.854 86.6771 172.487 86.3222 172.043 86.0914C171.599 85.8606 171.098 85.7638 170.6 85.8128H152.3C152.052 85.8058 151.805 85.8563 151.58 85.9604C151.354 86.0644 151.156 86.2193 151 86.4128C150.843 86.6552 150.769 86.9413 150.787 87.2293C150.805 87.5172 150.914 87.7918 151.1 88.0128L175.3 133.013L150.5 177.713C150.353 177.912 150.251 178.139 150.199 178.381C150.148 178.622 150.148 178.872 150.2 179.113C150.205 179.277 150.243 179.439 150.311 179.589C150.38 179.739 150.477 179.874 150.598 179.985C150.719 180.097 150.861 180.184 151.016 180.24C151.171 180.296 151.335 180.321 151.5 180.313H169.2C169.733 180.341 170.26 180.189 170.696 179.88C171.131 179.572 171.45 179.125 171.6 178.613C173.5 174.813 175.4 171.613 177.2 167.813C179 164.013 180.8 160.213 182.7 156.413C184.3 153.013 186 149.513 187.5 146.113C189.2 149.613 190.9 153.113 192.7 156.613C194.6 160.413 196.5 164.213 198.2 167.913C199.9 171.613 201.7 174.813 203.4 178.513C203.727 179.091 204.21 179.566 204.793 179.884C205.376 180.202 206.037 180.351 206.7 180.313H225.2C225.524 180.318 225.841 180.212 226.096 180.012C226.351 179.811 226.529 179.529 226.6 179.213C226.724 178.964 226.789 178.691 226.789 178.413C226.789 178.135 226.724 177.861 226.6 177.613Z" fill="#31A8FF"/>
</svg>

<svg xmlns="http://www.w3.org/2000/svg" width="256" height="256" fill="none"><path fill="#001E36" d="M196 0H60C26.863 0 0 26.863 0 60v136c0 33.137 26.863 60 60 60h136c33.137 0 60-26.863 60-60V60c0-33.137-26.863-60-60-60"/><path fill="#31A8FF" d="M88.9 86.313a32.5 32.5 0 0 0-12.1-8.2 50 50 0 0 0-18.5-3.1c-2.7 0-5.4 0-8.2.1s-5.4.1-7.8.2-4.8.1-6.9.2-4 .1-5.5.1c-.6 0-.9.4-.9 1.1v102.3c0 .9.3 1.3 1 1.3h17.7c.9 0 1.3-.5 1.3-1.4v-31.2c1.7 0 3 0 3.9.1s2.4.1 4.5.1a52.6 52.6 0 0 0 20.3-3.8 31.2 31.2 0 0 0 14.5-12.1c3.6-5.6 5.4-12.7 5.4-21.2a44.1 44.1 0 0 0-2-13 33.15 33.15 0 0 0-6.7-11.5m-13.9 35.1a15.67 15.67 0 0 1-7.4 5.3 30.2 30.2 0 0 1-10.4 1.6h-4.8c-1.1 0-2.2-.1-3.5-.2v-33.2c1.2-.1 2.5-.2 3.7-.2 1.8-.1 3.8-.1 6.2-.1 3.634-.082 7.245.6 10.6 2a14.46 14.46 0 0 1 6.3 5.7 17.2 17.2 0 0 1 2.1 8.9c0 4.3-.9 7.7-2.8 10.2m69.2 16.4a60.8 60.8 0 0 0-13.8-7.3c-2.2-1-4.3-2.1-6.4-3.3a9.7 9.7 0 0 1-3-2.7 5.8 5.8 0 0 1-.9-2.6 5 5 0 0 1 .7-2.7 5.07 5.07 0 0 1 2.8-2 16.7 16.7 0 0 1 5.4-.7c3.41-.018 6.806.42 10.1 1.3a26.3 26.3 0 0 1 8.1 3.4.91.91 0 0 0 1 0 1 1 0 0 0 .4-1v-16.2a5 5 0 0 0-.1-1.2 1.6 1.6 0 0 0-.9-.9 19.9 19.9 0 0 0-7-2.3 69.6 69.6 0 0 0-11.2-.9c-6.4 0-11.7 1.2-15.9 3.5a23.1 23.1 0 0 0-9.4 9.2 24.4 24.4 0 0 0-3 12.1 25.5 25.5 0 0 0 2.1 10.2 23.2 23.2 0 0 0 6.8 8.4 49 49 0 0 0 12.8 7.2c4.4 1.8 7.4 3.4 8.8 4.7a5.44 5.44 0 0 1 2.2 4 4.7 4.7 0 0 1-2.4 4.2c-1.6 1-4.1 1.4-7.5 1.4a47.6 47.6 0 0 1-10.6-1.5 32.6 32.6 0 0 1-10.3-4.9.76.76 0 0 0-.8-.1 1 1 0 0 0-.4.9v17.4a2.05 2.05 0 0 0 1 1.9 28 28 0 0 0 8.3 3.2 55.6 55.6 0 0 0 12.2 1.3c6.5 0 11.9-1.1 16.3-3.2a23 23 0 0 0 10.1-8.9 24.77 24.77 0 0 0 3.5-13.3 24.4 24.4 0 0 0-2.1-10.3 20.44 20.44 0 0 0-6.9-8.3"/><path fill="#31A8FF" d="m226.6 177.613-25.6-46.1 23.9-43.4a1.38 1.38 0 0 0 .2-1.6 1.35 1.35 0 0 0-1.5-.8h-17a2.15 2.15 0 0 0-1.5.4c-.347.322-.59.74-.7 1.2-1.7 3.8-3.6 7.1-5.4 10.9s-3.7 7.6-5.4 11.3c-1.6 3.3-3.2 6.8-4.7 10.3-1.5-3.4-3.1-6.8-4.8-10.1-2-3.8-3.9-7.6-5.8-11.4s-3.6-7.2-5.2-11.2a2.58 2.58 0 0 0-2.5-1.3h-18.3a1.6 1.6 0 0 0-1.3.6 1.35 1.35 0 0 0 .1 1.6l24.2 45-24.8 44.7a1.74 1.74 0 0 0-.3 1.4 1.25 1.25 0 0 0 .398.872 1.23 1.23 0 0 0 .902.328h17.7a2.37 2.37 0 0 0 2.4-1.7c1.9-3.8 3.8-7 5.6-10.8s3.6-7.6 5.5-11.4c1.6-3.4 3.3-6.9 4.8-10.3 1.7 3.5 3.4 7 5.2 10.5 1.9 3.8 3.8 7.6 5.5 11.3s3.5 6.9 5.2 10.6a3.56 3.56 0 0 0 3.3 1.8h18.5a1.41 1.41 0 0 0 1.4-1.1 1.8 1.8 0 0 0 0-1.6"/></svg>
